X:1
T:Sitt Etudes for Violin Opus 32 nr 3
T: Etudes for Violin Opus 32 nr 3
C:Sitt
L:1/8
Q:1/4=65
M:3/4
K:D
V:1 treble nm="Piano" snm="Pno."
V:1
 D2 (GF ED) | (!4!A4 G2) | (FG !0!AB cd) | (dc) !4!ed c2 | !0!A2 (dc) BA | (!4!e4 d2) | %6
 (cd !0!ef ga) | (gf) af d2 | f2 (ba) gf | (!0!e2 a2) A2 | B2 (!4!ed cB) | (!0!A2 d2) D2 | %12
 (Bc dc BA) | (^GF ED CB,) | (A,C) EA ce | (a4 A2) | (AG) FE FG | (AB) cd !4!ec | (d!4!e) fg ab | %19
 a2 f2 d2 | (!4!AG) FE FG | (AB cd) ec | (d!4!e fg) ab | (ag fe) dA | (=c4 B)A | (!4!e2 d2) =c2 | %26
 B2 (ba) gf | (a2 g2) !0!e2 | A2 (ag) fe | (g2 f2) d2 | G2 (ba) gf | (ef) gf !4!ed | %32
 (cd) !4!ed cB | (AB A)G FE | D2 (GF) ED | (!4!A2 E2) G2 | (FG !0!AB) cd | (dc) !4!ed c2 | %38
 A2 (dc) BA | (!4!e2 B2) d2 | (cd !0!ef) (ga) | (gf) ag f2 | f2 (ag) fe | d2 (!4!AG FE) | %44
 D2 (d=c BA) | (B2 d2) g2 | ^g2 (ba gf) | !0!e2 (BA) ^GF | E2 (!4!ed) cB | (c2 !4!e2) a2 | %50
 (AB cd) !4!e2 | (cd) ef g2 | (fa b)a gf | (ef g)f !4!ed | c2 (!4!ed cB) | A2 (ag fe) | %56
 (fa) gf !4!ed | (Bd) cB AG | F2 (AF E)D | E2 (!4!AG) FE | D2 (GF ED) | (!4!A2 E2) G2 | %62
 F2 (AB) cd | !0!e2 (ag fe) | f2 (gf) !4!ed | (A2 a2) g2 | (fa g)f !4!ed | (cB A)G FE | %68
 D2 (!4!AG FE) | !0!D6 |] %70

